svg/package_variant_minus.svg

<svg xmlns="http://www.w3.org/2000/svg" viewBox="0 0 24 24"><path d="M13 15.6c.3.2.7.2 1 0l5-2.9v.3c.7 0 1.4.1 2 .4v-1.8l1-.6c.5-.3.6-.9.4-1.4l-1.5-2.5c-.1-.2-.2-.4-.4-.5l-7.9-4.4c-.2-.1-.4-.2-.6-.2s-.4.1-.6.2L3.6 6.6c-.2.1-.4.2-.5.4L1.6 9.6c-.3.5-.1 1.1.4 1.4.3.2.7.2 1 0v5.5c0 .4.2.7.5.9l7.9 4.4c.2.1.4.2.6.2s.4-.1.6-.2l.9-.5c-.3-.6-.4-1.3-.5-2m-2 0-6-3.4V9.2l6 3.4zm9.1-9.6-6.3 3.6-.6-1 6.3-3.6zM12 10.8V4.2l6 3.3zM23 20h-8v-2h8z"/></svg>

<svg xmlns="http://www.w3.org/2000/svg" id="mdi-package-variant-minus" viewBox="0 0 24 24"><path d="M13 15.6C13.3 15.8 13.7 15.8 14 15.6L19 12.7V13C19.7 13 20.4 13.1 21 13.4V11.6L22 11C22.5 10.7 22.6 10.1 22.4 9.6L20.9 7.1C20.8 6.9 20.7 6.7 20.5 6.6L12.6 2.2C12.4 2.1 12.2 2 12 2S11.6 2.1 11.4 2.2L3.6 6.6C3.4 6.7 3.2 6.8 3.1 7L1.6 9.6C1.3 10.1 1.5 10.7 2 11C2.3 11.2 2.7 11.2 3 11V16.5C3 16.9 3.2 17.2 3.5 17.4L11.4 21.8C11.6 21.9 11.8 22 12 22S12.4 21.9 12.6 21.8L13.5 21.3C13.2 20.7 13.1 20 13 19.3M11 19.3L5 15.9V9.2L11 12.6V19.3M20.1 9.7L13.8 13.3L13.2 12.3L19.5 8.7L20.1 9.7M12 10.8V4.2L18 7.5L12 10.8M23 20H15V18H23V20Z" /></svg>
